findly-builder/apps/searchassist/src/assets/icons/docker/external-link.svg

<svg width="12" height="12" viewBox="0 0 12 12" fill="none" xmlns="http://www.w3.org/2000/svg">
<path d="M7 0V1H10.293L4.02344 7.27344L4.72656 7.97656L11 1.70703V5H12V0H7ZM2 2C0.894531 2 0 2.89453 0 4V10C0 11.1055 0.894531 12 2 12H8C9.10547 12 10 11.1055 10 10V5L9 6V10C9 10.5508 8.55078 11 8 11H2C1.44922 11 1 10.5508 1 10V4C1 3.44922 1.44922 3 2 3H6L7 2H2Z" fill="#5F6368"/>
</svg>

<svg width="12" height="12" fill="none" xmlns="http://www.w3.org/2000/svg"><path d="M7 0v1h3.293l-6.27 6.273.704.704L11 1.707V5h1V0H7ZM2 2a2 2 0 0 0-2 2v6a2 2 0 0 0 2 2h6a2 2 0 0 0 2-2V5L9 6v4c0 .55-.45 1-1 1H2c-.55 0-1-.45-1-1V4c0-.55.45-1 1-1h4l1-1H2Z" fill="#5F6368"/></svg>
